icons/astroconfig.svg

<svg width="16" height="16" viewBox="0 0 16 16" fill="none" xmlns="http://www.w3.org/2000/svg">
<path fill-rule="evenodd" clip-rule="evenodd" d="M4 3H12C12.5523 3 13 3.44772 13 4V12C13 12.5523 12.5523 13 12 13H4C3.44772 13 3 12.5523 3 12V4C3 3.44772 3.44772 3 4 3ZM2 4C2 2.89543 2.89543 2 4 2H12C13.1046 2 14 2.89543 14 4V12C14 13.1046 13.1046 14 12 14H4C2.89543 14 2 13.1046 2 12V4ZM9.9239 4.90489C9.82888 4.58012 9.78136 4.41773 9.68818 4.29738C9.60592 4.19114 9.49885 4.10862 9.37721 4.05769C9.2394 4 9.07624 4 8.74991 4H7.2598C6.93389 4 6.77094 4 6.63327 4.05757C6.51173 4.10839 6.40472 4.19075 6.32246 4.2968C6.22927 4.41692 6.1816 4.57903 6.08628 4.90325L4 11.9989C4.77087 11.5832 5.60913 11.2838 6.49324 11.1234L7.82861 6.37409C7.85056 6.29607 7.91933 6.24245 7.99748 6.24245C8.07542 6.24245 8.14408 6.29579 8.16619 6.37355L9.51794 11.1258C10.398 11.287 11.2324 11.5857 12 12L9.92391 4.9049L9.9239 4.90489Z" fill="#FF7E33"/>
</svg>

<svg xmlns="http://www.w3.org/2000/svg" width="16" height="16" fill="none"><path fill="#B176E6" fill-rule="evenodd" d="M4 3h8a1 1 0 0 1 1 1v8a1 1 0 0 1-1 1H4a1 1 0 0 1-1-1V4a1 1 0 0 1 1-1ZM2 4a2 2 0 0 1 2-2h8a2 2 0 0 1 2 2v8a2 2 0 0 1-2 2H4a2 2 0 0 1-2-2V4Zm7.924.905c-.095-.325-.143-.487-.236-.608a.77.77 0 0 0-.31-.24C9.238 4 9.075 4 8.75 4H7.26c-.326 0-.49 0-.627.058a.77.77 0 0 0-.31.239c-.094.12-.141.282-.237.606L4 12a8.412 8.412 0 0 1 2.493-.876L7.83 6.374a.177.177 0 0 1 .168-.132c.078 0 .147.054.17.132l1.35 4.752c.881.161 1.715.46 2.483.874L9.924 4.905Z" clip-rule="evenodd"/></svg>
